X:1
N: The Diamond Jubilee
N: 4 x 32J 4C (Robert M. Campbell, RSCDS Bk 31))
T: Captain Campbell (of Lochnell's) Reel
C: Robert Mackintosh
C: arr. T. Traub 4-10-2005
R: jig
M: 6/8
%
K: C
L: 1/8
|: e/f/|"C"g3 edc|"Dm"aga "G7"fed|"C"g3 "Am"edc|"G"Bdc BAG|"C"g3 edc|"F"aga "G"fed|"C"efg "G"fed|"C"ecc c2 :|
E/F/|"C"GEG GEG |"F"AFA ABc|"C"GEG GFE|"Dm"DEC "G"B,A,G,|"C"GEG GEG|"F"AFA ABc|"G"Bag fed|"C"ecc c2 E/F/||
"C"GEG GEG|"F"AFA ABc|"C"GEG "A7"GFE|"D7"DEC "G7"B,A,G,|"C"GEG "F"AFA|"C"GAB cAa|"G"gfe fed|"C"ecc c2 |]
